assets/2023/icons/rego.svg

<svg width="16" height="16" viewBox="0 0 16 16" fill="none" xmlns="http://www.w3.org/2000/svg">
<path d="M15 5.08782C15 3.87653 12.5 1.15131 12.3334 1C12.9329 3.45114 12.8583 3.08518 12.9586 3.86796C12.9851 4.0743 12.9963 4.28843 12.9054 4.47919C12.4891 5.35256 10.9997 5.84439 10.9997 5.84439L13.3329 7.66121C13.3329 7.66121 15 6.14728 15 5.08782ZM1 5.08782C1 3.87653 3.5 1.15131 3.66657 1C3.06714 3.45114 3.14143 3.08518 3.04143 3.86796C3.01486 4.0743 3.00371 4.28843 3.09457 4.47919C3.51086 5.35256 5.00029 5.84439 5.00029 5.84439L2.66714 7.66121C2.66714 7.66121 1 6.14728 1 5.08782Z" fill="#BFBFBF"/>
<path d="M8 3.87598C10.6126 3.87598 12.5097 5.54407 13.3334 7.66091V11.2945C13.3334 11.2945 11.6666 11.9003 10.6666 12.5058C9.66657 13.1113 8.16657 14.9282 8.16657 14.9282H8V3.87598Z" fill="#7D9199"/>
<path d="M7.99944 3.87598C5.38687 3.87598 3.48973 5.54407 2.66602 7.66091V11.2945C2.66602 11.2945 4.33287 11.9003 5.33287 12.5058C6.33287 13.1113 7.83287 14.9282 7.83287 14.9282H7.99944V3.87598Z" fill="#7D9199"/>
<path d="M8.00056 8.26572C8.36869 8.26572 8.66713 7.99462 8.66713 7.6602C8.66713 7.32579 8.36869 7.05469 8.00056 7.05469C7.63242 7.05469 7.33398 7.32579 7.33398 7.6602C7.33398 7.99462 7.63242 8.26572 8.00056 8.26572Z" fill="white"/>
</svg>

<svg xmlns="http://www.w3.org/2000/svg" width="16" height="16" fill="none" viewBox="0 0 16 16"><path fill="#BFBFBF" d="M15 5.088C15 3.877 12.5 1.15 12.333 1c.6 2.451.525 2.085.626 2.868.026.206.037.42-.054.611C12.49 5.353 11 5.844 11 5.844l2.333 1.817S15 6.147 15 5.088m-14 0C1 3.877 3.5 1.15 3.667 1c-.6 2.451-.526 2.085-.626 2.868-.026.206-.037.42.054.611C3.51 5.353 5 5.844 5 5.844L2.667 7.661S1 6.147 1 5.088"/><path fill="#7D9199" d="M8 3.876c2.613 0 4.51 1.668 5.333 3.785v3.633s-1.666.606-2.666 1.212c-1 .605-2.5 2.422-2.5 2.422H8zm0 0c-2.613 0-4.51 1.668-5.334 3.785v3.633s1.667.606 2.667 1.212c1 .605 2.5 2.422 2.5 2.422h.166z"/><path fill="#fff" d="M8 8.266c.369 0 .667-.271.667-.606s-.298-.605-.666-.605-.667.27-.667.605.298.606.667.606"/></svg>
